packages/astro-components-stencil/src/icons/alarm-on.svg

<svg width="24" height="24" viewBox="0 0 24 24" fill="none" xmlns="http://www.w3.org/2000/svg">
<path fill-rule="evenodd" clip-rule="evenodd" d="M7.17001 3.99L4.10001 6.55C3.68001 6.9 3.05001 6.85 2.70001 6.42C2.34001 6 2.40001 5.37 2.82001 5.01L5.90001 2.45C6.32001 2.1 6.95001 2.15 7.30001 2.58C7.66001 3 7.60001 3.63 7.17001 3.99ZM21.18 5.01L18.1 2.45C17.68 2.1 17.05 2.15 16.69 2.58C16.34 3 16.4 3.63 16.82 3.99L19.89 6.55C20.31 6.9 20.94 6.85 21.3 6.42C21.66 6 21.6 5.37 21.18 5.01ZM14.94 10.11L10.54 14.53L8.94001 12.93C8.65001 12.64 8.17001 12.64 7.88001 12.93C7.59001 13.22 7.59001 13.7 7.88001 13.99L10 16.11C10.29 16.4 10.77 16.4 11.06 16.11L16 11.17C16.29 10.88 16.29 10.4 16 10.11C15.71 9.82 15.23 9.82 14.94 10.11ZM12 4C7.03001 4 3.00001 8.03 3.00001 13C3.00001 17.97 7.03001 22 12 22C16.97 22 21 17.97 21 13C21 8.03 16.97 4 12 4ZM5.00001 13C5.00001 16.86 8.14001 20 12 20C15.86 20 19 16.86 19 13C19 9.14 15.86 6 12 6C8.14001 6 5.00001 9.14 5.00001 13Z" fill="black"/>
</svg>

<svg xmlns="http://www.w3.org/2000/svg" viewBox="0 0 24 24"><g xmlns="http://www.w3.org/2000/svg" id="alarm-on" fill-rule="nonzero">
            <path d="M14.94 10.11l-4.4 4.42-1.6-1.6a.754.754 0 00-1.06 0c-.29.29-.29.77 0 1.06L10 16.11c.29.29.77.29 1.06 0L16 11.17c.29-.29.29-.77 0-1.06a.754.754 0 00-1.06 0zm6.24-5.1L18.1 2.45c-.42-.35-1.05-.3-1.41.13-.35.42-.29 1.05.13 1.41l3.07 2.56c.42.35 1.05.3 1.41-.13a1 1 0 00-.12-1.41zM4.1 6.55l3.07-2.56c.43-.36.49-.99.13-1.41a.988.988 0 00-1.4-.13L2.82 5.01a1 1 0 00-.12 1.41c.35.43.98.48 1.4.13zM12 4a9 9 0 10.001 18.001A9 9 0 0012 4zm0 16c-3.86 0-7-3.14-7-7s3.14-7 7-7 7 3.14 7 7-3.14 7-7 7z"/>
        </g></svg>
